X:1
T:The Riddle
T:Music by Nik Kershaw 
L:1/8
M:4/4
I:linebreak $
K:A
z2 z4 FG |"F#m" A2 AB"E" AGFE |"A/E" E2 FG"B/F#" G2 FG |"F#m" A2 AB"E" AGFE |$ 
"D/F#" F2 FE"A/E" E2 FG |"F#m" A2 AB"E" AGFE |"A/E" E2 FG"B/F#" G2 FG |"F#m" A2 AB"E" AGFE |$ 
"D/F#" F2 FE"A/E" E2 ce |"Bm" dc"A/C#"BA"D" F2"E" EF |"F#m" F2"E" z z2 FA z | 
"A/E" c2 c2"B/F#" B3 z |$"C#m/G#" G2 GB"D/F#" AG F2 |"Bm/F#" A2 z c"G" dcBd | 
"F#m" c2 z A"E/G#" G2 Bc |"A" c2 c2"B/F#" B3 z |$"C#m/E" G2 GB"D" AGFE |"Ebm7/C#" C4"Bbm/C#" z4 | 
"Bm/D" A2"A/C#" B2"D" A2"E" FG |"F#m" A2 AB"E" AGFE |$"A/E" E2 FG"B/F#" G3/2 z/ FG | 
"F#m" A2 AB"E" AGFE |"D/F#" F2 FE"A/E" E3/2 z/ FG |"F#m" A2 AB"E" AGFE |$ 
"A/E" E2 FG"B/F#" G3/2 z/ FG |"F#m" A2 AB"E" AGFE |"D/F#" F2 FE"A/E" E2 ce | 
"Bm/D" dc"A/C#"BA"D" F2"E" EF |$"F#m" F2 z z2"E" FA z |"A/E" c2 c2"B/F#" B3 z | 
"C#m/G#" G2 GB"D/F#" AG F2 |"Bm/F#" A2 z c"G" dcBd |$"F#m" c2 A"E/G#" A3 B z | 
"A" c2 c"B/F#" B3 z2 |"C#m/E" G2 z B"D" AGFE |"Ebm7/C#" C4"Bbm/C#" z4 |$ 
"Bm/D" A2"A/C#" B2"D" AG"E"FE |"F#m" F2 z z2"E" FA z |"A/E" c2 c2"B/F#" B3 z | 
"C#m/G#" G2 GB"D/F#" AGFF |$"Bm/F#" A2 z c"G" dcBd |"F#m" c2 A2"E/G#" G2 B z | 
"A" c2 c2"B/F#" B3 z |"C#m/E" G2 GB"D" AGFE |$"Ebm7/C#" C4"Bbm/C#" z4 | 
"Bm/D" A2"A/C#" B2"D" A2"E" FG |"F#m" A2 AB"E" AGFE |"A/E" E2 FG"B/F#" G3/2 z/ FG |$ 
"F#m" A2 AB"E" AGFE |"D/F#" F2 FE"A/E" E3/2 z/ FG |"F#m" A2 AB"E" AGFE | 
"A/E" E2 FG"B/F#" G3/2 z/ FG |$"F#m" A2 AB"E" AGFE |"D/F#" F2 FE"A/E" E2 z e | 
"Bm/D" dc"A/C#"BA"D" F2"E" EF |"G" F3 z2"C/G" =GG3/2 z/ ||$[K:C]"F" A3 G"Bb/F" F3 z | 
"Am" z GGA"D/F#" ^FGA^F |"G" G2 A3/2 z/"F" _BAGF |"E" E2 A2 ^G2 B2 |$"Am" c2"G" B2"C/E" G3 z | 
"D" A3 A/A/ AAAA |"Bb/D" _B4"Eb" z4 |"C/Eb" _B2"Bb/D" c2"Eb" B2"F" GA ||$[K:Bb]"Gm" B2 Bc"F" BAGF | 
"Bb/F" F2 GA"C/G" A2 GA |"Gm" B2 Bc"F" BAGF |"Eb/G" G2 GF"Bb/F" F2 GA |$"Gm" B2 Bc"F" BAGF | 
"Bb/F" F2 GA"C/G" A2 GA |"Gm" B2 Bc"F" BAGF |"Eb/G" G2 GF"Bb/F" F2 df |$ 
"Cm/Eb" ed"Bb/D"cB"Eb" G2"F" GA |"Gm" B2 Bc"F" BAGF |"Bb/F" F2 GA"C/G" A3/2 z/ GA | 
"Gm" B2 Bc"F" BAGF |$"Eb/G" G2 GF"Bb/F" F3/2 z/ GA |"Gm" B2 Bc"F" BAGF | 
"Bb/F" F2 GA"C/G" A3/2 z/ GA |"Gm" B2 Bc"F" BAGF |$"Eb/G" G2 GF"Bb/F" F2 z f | 
"Cm/Eb" ed"Bb/D"cB"Eb" G2"F" z2 |"Gm" B2 Bc"F" BAGF |"Bb/F" F2 GA"C/G" A3/2 z/ GA |$ 
"Gm" B2 Bc"F" BAGF |"Eb/G" G2 GF"Bb/F" F3/2 z/ GA |"Gm" B2 Bc"F" BAGF |"Bb/F" F2 GA"C/G" A2 GA |$ 
"Gm" B2 Bc"F" BAGF |"Eb/G" G2 GF"Bb/F" F2 z f |"Cm/Eb" ed"Bb/D"cB"Eb" G2"F" FG | 
"Cm/Eb""Bb/D" G4"Eb" z2"F" df |$"Cm/Eb" ed"Bb/D"cB"Eb" G2"F" FG |"Gm" G6 z2 | z8 |] 
